X: 25089
T: Maids Of Mitchelstown, The
R: reel
M: 4/4
K: Ddorian
[A,2D2 ] AG [CE]G ~G2|[A,D A2] GA [CEc]A[CG]E|[A,D2]C AG EG ~G2|[C2E2c2] GE [CE]D[A,2 D2]:|
|:[CE]GAB [C2E2c2] AG|[A,DA]dde [A,2D2A2f2] ed|[G,E c]A GE ~[A,3F3] G|1 [A,DA]c [CG]E [C E][DA,] D2:|2 [A,EA]c [G,G B] d [A,E c]A [CG]E||

